X:1
T:Hepher, 11.11.11.11
T:Hepher, 11.11.11.11
T:Church Melodies, 1858
T:Public Domain Courtesy of the Cyber Hymnal™
C:Church Melodies, 1858
Z:Public Domain
Z:Courtesy of the Cyber Hymnal™
%%score ( 1 2 ) ( 3 4 )
L:1/8
M:2/2
K:F
V:1 treble 
V:2 treble 
V:3 bass 
V:4 bass 
V:1
 [Fc]2 | [Fc]4 [FA]2 [Fd]2 | [Fc]4 [FA]2 [FA]2 | [GB]4 [EG]2 [EG]2 | [FA]6 [FA]2 | [FA]4 F2 [FB]2 | %6
 [FA]4 [CF]2 [CF]2 | [CG]4 [CE]2 [CE]2 | [CF]4 z2 [Fc]2 | [Af]4 [Be]2 [Bd]2 | [Ac]4 [FA]2 [FA]2 | %11
 G2 c2 [Ge]2 [Fd]2 | [Ec]6 [Fc]2 | [Af]4 [Be]2 [Bd]2 | [Ac]4 [FA]2 [Ac]2 | [GB]3 [FA] [GB]2 [EG]2 | %16
 F6 |] %17
V:2
 x2 | x8 | x8 | x8 | x8 | x4 F2 x2 | x8 | x8 | x8 | x8 | x8 | E4 x4 | x8 | x8 | x8 | x8 | F6 |] %17
V:3
 [F,A,]2 | [F,A,]4 F,2 [F,B,]2 | [F,A,]4 [F,C]2 [F,C]2 | [C,C]4 [C,C]2 [C,C]2 | [F,C]6 [F,C]2 | %5
 [F,C]4 [F,A,]2 [F,D]2 | [F,C]4 [F,A,]2 [F,A,]2 | [C,B,]4 [C,G,]2 [C,G,]2 | [F,A,]4 z2 [F,A,]2 | %9
 [F,C]4 [F,C]2 (DE) | [F,F]4 [F,C]2 [F,C]2 | [G,C]4 [G,C]2 [G,=B,]2 | [C,C]6 [F,A,]2 | %13
 [F,C]4 [F,C]2 (DE) | [F,F]4 [F,C]2 [F,C]2 | C4 [C,C]2 (CB,) | [F,A,]6 |] %17
V:4
 x2 | x8 | x8 | x8 | x8 | x8 | x8 | x8 | x8 | x6 F,2 | x8 | x8 | x8 | x6 F,2 | x8 | C4 C,2 x2 | %16
 x6 |] %17

